X:1
T:Engelska
S:Efter N N
R: Engelska
O:Skåne
B:Svenska Låtar Skåne nr XXX
Z:ABC-transkribering av Sven Midgren
M:2/4
L:1/16
K:D
|:a3g fgfe | dcde f2a2 | gfef gbag | fage d2A2 |
a3g fgfe | dcde f2a2 | gfef gbag | fage d4 :|
|: dfed c2A2 | Acef g2f2 | dfff dffa | gfge dcBA |
 dfed c2A2 | Acef g2f2 | dfff dffa | gfge d4 :|

